icons/run.svg

<svg width="24" height="24" viewBox="0 0 24 24" fill="none" xmlns="http://www.w3.org/2000/svg">
<path fill-rule="evenodd" clip-rule="evenodd" d="M11 4C11 2.89543 11.8954 2 13 2C14.1046 2 15 2.89543 15 4C15 5.10457 14.1046 6 13 6C11.8954 6 11 5.10457 11 4ZM11.8039 7.01942C12.1317 6.95385 12.4707 7.05647 12.7071 7.29289L15.5402 10.126L18.3162 11.0513C18.8402 11.226 19.1233 11.7923 18.9487 12.3162C18.774 12.8402 18.2077 13.1233 17.6838 12.9487L14.6838 11.9487C14.5365 11.8996 14.4027 11.8169 14.2929 11.7071L12.6669 10.0811L12.0863 13.5648L15.6 16.2C15.8518 16.3889 16 16.6852 16 17V21C16 21.5523 15.5523 22 15 22C14.4477 22 14 21.5523 14 21V17.5L10.4 14.8C10.1012 14.5759 9.95221 14.204 10.0136 13.8356L10.7754 9.26472L8 9.8198V12C8 12.5523 7.55229 13 7 13C6.44772 13 6 12.5523 6 12V9C6 8.52332 6.33646 8.1129 6.80389 8.01942L11.8039 7.01942ZM10.1972 15.6056C10.6912 15.8526 10.8914 16.4532 10.6444 16.9472L9.89443 18.4472C9.69276 18.8506 9.24608 19.069 8.80389 18.9806L3.80389 17.9806C3.26233 17.8723 2.91111 17.3454 3.01942 16.8039C3.12773 16.2623 3.65456 15.9111 4.19612 16.0194L8.44715 16.8696L8.85557 16.0528C9.10256 15.5588 9.70324 15.3586 10.1972 15.6056Z" fill="black"/>
</svg>

<svg
  width="24"
  height="24"
  viewBox="0 0 24 24"
  xmlns="http://www.w3.org/2000/svg"
>
  <path
    fill-rule="evenodd"
    clip-rule="evenodd"
    d="M11 4a2 2 0 1 1 4 0 2 2 0 0 1-4 0zm.804 3.02a1 1 0 0 1 .903.273l2.833 2.833 2.776.925a1 1 0 0 1-.632 1.898l-3-1a1 1 0 0 1-.391-.242l-1.626-1.626-.58 3.484L15.6 16.2a1 1 0 0 1 .4.8v4a1 1 0 1 1-2 0v-3.5l-3.6-2.7a1 1 0 0 1-.386-.964l.761-4.571L8 9.82V12a1 1 0 1 1-2 0V9a1 1 0 0 1 .804-.98l5-1zm-1.607 8.586a1 1 0 0 1 .447 1.341l-.75 1.5a1 1 0 0 1-1.09.534l-5-1a1 1 0 0 1 .392-1.962l4.251.85.409-.816a1 1 0 0 1 1.341-.447z"
  />
</svg>
